packages/ui-solid/icons/chat_24.svg

<svg width="24" height="24" viewBox="0 0 24 24" fill="none" xmlns="http://www.w3.org/2000/svg">
<path fill-rule="evenodd" clip-rule="evenodd" d="M6.16548 17.5877C6.37372 17.1029 6.50038 16.5443 6.50038 15.8712C4.96068 14.6121 4.00024 12.8301 4.00024 10.8545C4.00024 7.03921 7.58216 3.9463 12.0007 3.9463C16.4192 3.9463 20.0011 7.03921 20.0011 10.8545C20.0011 14.6698 16.4192 17.7627 12.0007 17.7627C11.31 17.7627 10.6398 17.6871 10.0006 17.5451C9.57746 18.0086 8.765 18.6074 7.40983 19.084C6.62962 19.3584 5.66952 19.5922 4.50027 19.7365C5.14443 19.1008 5.78858 18.4651 6.16548 17.5877ZM10.5449 19.4674C11.0207 19.5303 11.5069 19.5627 12.0007 19.5627C17.1562 19.5627 21.8011 15.9028 21.8011 10.8545C21.8011 5.80617 17.1562 2.1463 12.0007 2.1463C6.84511 2.1463 2.20024 5.80617 2.20024 10.8545C2.20024 13.0864 3.13902 15.0813 4.61457 16.5836C4.43918 17.2337 3.99112 17.71 3.23594 18.4553C2.68743 18.9966 2.54434 19.827 2.88005 20.5206C3.21577 21.2143 3.95581 21.6173 4.72064 21.5229C7.48825 21.1815 9.36845 20.3581 10.5449 19.4674Z" fill="#007AFF"/>
</svg>

<svg xmlns="http://www.w3.org/2000/svg" width="24" height="24" fill="none"><path fill="currentColor" fill-rule="evenodd" d="M6.165 17.588A4.3 4.3 0 0 0 6.5 15.87C4.96 14.612 4 12.831 4 10.854c0-3.815 3.582-6.908 8-6.908 4.42 0 8.001 3.093 8.001 6.909s-3.582 6.908-8 6.908a9.2 9.2 0 0 1-2-.218c-.424.464-1.236 1.062-2.591 1.539-.78.274-1.74.508-2.91.652.644-.635 1.289-1.27 1.665-2.148m4.38 1.88q.715.094 1.456.095c5.155 0 9.8-3.66 9.8-8.708 0-5.049-4.645-8.709-9.8-8.709s-9.8 3.66-9.8 8.709c0 2.231.938 4.226 2.414 5.729-.176.65-.624 1.126-1.38 1.871a1.8 1.8 0 0 0 1.486 3.068c2.767-.341 4.647-1.165 5.824-2.056" clip-rule="evenodd"/></svg>
